X:1
T:Title
%%score { 1 | ( 2 3 ) }
L:1/8
M:4/4
K:G
V:1 treble nm="Grand Piano"
V:2 bass 
V:3 bass 
V:1
 z4 z2[Q:1/4=100] [G,B,D]2 | [G,CE]2 [CF]2 [B,DG]2 [DFA]2 | [DGB]2 [CGc]2 [Fd]2 .[Ec]2 | %3
 [DGB]2 [DFA]2 [DGB]2 [CEA]2 | [B,DG]2 [A,DF]2 [B,DG]2 [G,D]2 | %5
 [G,CE]2 [A,DF]2 [G,DG][CFA] [DGB]2 |[M:7/4] .[CEA]2 [A,CF]2 [G,B,G]2 z2 z2 z4 | %7
[M:4/4] [CG]4 [B,G]4 |] %8
V:2
 z4 z2 G,,2 | C,B,, A,,2 G,,2 D,2 | G,F, E,2 [D,A,]2 z F | B,,C, D,2 G,2 C,2 | D,2 D,2 G,2 B,,2 | %5
 C,2 C,2 B,,A,, G,,2 |[M:7/4] z G D,2 G,,2 z2 z2 z4 |[M:4/4] [C,E,]4 [G,,G,]4 |] %8
V:3
 x8 | x8 | z4 z2 [A,,A,]2 | x8 | x8 | x8 |[M:7/4] C,2 z2 z2 z2 z2 z4 |[M:4/4] x8 |] %8

